X: 19
T:Maid of the Mill, Brackley 4
M:6/8
L:1/8
A:Brackley
P:A(AB3)4A2
K:G
P:A
D|G2G B2G|A2F D2D|G2G B2G| d3 d2c |
e2e d2B|c2c B2G|AAA E2F| G3 G2  ||
P:B
d|:ddd d2B|ccc c3 |EEE E2D|1G3 G2B:||2G3 G2||
